X: 10132
T: BUONAPARTE'S MARCH OVER THE RHINE
C:
%R: march
B: Elias Howe "The Musician's Companion" Part 1 1842 p.13 #2
S: http://imslp.org/wiki/The_Musician's_Companion_(Howe,_Elias)
Z: 2015 John Chambers <jc:trillian.mit.edu>
M: C
L: 1/8
K: Am
% - - - - - - - - - - - - - - - - - - - - - - - - -
"^A Minor."EF/G/ |\
A2A>A AGEG | cdec d2 ef/g/ | aged cAGE | G2G>G G2 EF/G/ |\
A2A>A AGEG | cdec d2 ef/g/ | aged cAGE | A2A>A A2 :|
|: ef/g/ |\
aged cdef | gega g2 ef/g/ | aged cAGE | G2G>G G2 EF/G/ |\
A2A>A AGEG | cdec d2 ef/g/ | aged cAGE | A2A>A A2 :|
% - - - - - - - - - - - - - - - - - - - - - - - - -
